X: 259
T:Moneymusk,The. JaW.258
M:C|
Q:150
S:James Winder Ms, Lancashire, 1835-41
R:Strathspey
O:England
A:Wyresdale,Lancashire
H:1/8
Z:vmp.Chris Partington, Aug 2004
K:G
e|d>GB>G d>Gc>e|d>GB>G AB/A/ c>e|\
c>GB>G Bc/d/ dg|e>cB>c BGG:|!
|:e/f/|g>dB>g d>gB>g|g>dc>g B>gA>g|\
g>de>g d>gB>g|e>cA>d BGG e/f/|!
g>dc>g d>gB>g|g>dc>g B>gA>g|\
g>de>g d>gc>g|B>gA>f BGG:|]
